packages/dnb-eufemia/assets/icons/file_pdf.svg

<svg width="16" height="16" viewBox="0 0 16 16" fill="none" xmlns="http://www.w3.org/2000/svg">
<path d="M10.7181 4.98526C10.9861 5.30109 11.4594 5.33986 11.7753 5.07186C12.0911 4.80385 12.1299 4.33057 11.8619 4.01474L10.7181 4.98526ZM4 15.5927C4.41421 15.5927 4.75 15.2569 4.75 14.8427C4.75 14.4285 4.41421 14.0927 4 14.0927V15.5927ZM2 1.00001L2 1.75001L2 1.00001ZM7.85706 1L7.85706 1.75L7.85706 1ZM8.61953 1.35298L8.04768 1.83825L8.61953 1.35298ZM1.75 13.8427V2.00001H0.25V13.8427H1.75ZM2 1.75001L7.85706 1.75L7.85705 0.250001L2 0.250008L2 1.75001ZM8.04768 1.83825L10.7181 4.98526L11.8619 4.01474L9.19139 0.867723L8.04768 1.83825ZM2 15.5927H4V14.0927H2V15.5927ZM1.75 2.00001C1.75 1.86194 1.86193 1.75001 2 1.75001L2 0.250008C1.0335 0.250009 0.25 1.03351 0.25 2.00001H1.75ZM0.25 13.8427C0.25 14.8092 1.0335 15.5927 2 15.5927V14.0927C1.86193 14.0927 1.75 13.9807 1.75 13.8427H0.25ZM7.85706 1.75C7.93047 1.75 8.00017 1.78227 8.04768 1.83825L9.19139 0.867723C8.85889 0.475884 8.37096 0.25 7.85705 0.250001L7.85706 1.75Z" fill="black"/>
<path d="M5.81445 8H4.14111V12.6667H5.14111V10.8667H5.81445C6.82111 10.8667 7.40778 10.34 7.40778 9.43333C7.40778 8.52667 6.82111 8 5.81445 8ZM5.65445 10.0667H5.14111V8.8H5.65445C6.16111 8.8 6.39445 9 6.39445 9.43333C6.39445 9.86667 6.16111 10.0667 5.65445 10.0667Z" fill="black"/>
<path d="M9.50518 8H8.27184V12.6667H9.50518C10.8185 12.6667 11.6052 11.82 11.6052 10.3333C11.6052 8.84667 10.8185 8 9.50518 8ZM9.41184 11.8667H9.27184V8.8H9.41184C10.1785 8.8 10.5852 9.3 10.5852 10.3333C10.5852 11.3667 10.1785 11.8667 9.41184 11.8667Z" fill="black"/>
<path d="M15.4759 8.8V8H12.5359V12.6667H13.5359V10.74H15.2092V9.94H13.5359V8.8H15.4759Z" fill="black"/>
</svg>

<svg width="16" height="16" viewBox="0 0 16 16" fill="none" xmlns="http://www.w3.org/2000/svg"><path d="M10.718 4.985a.75.75 0 0 0 1.144-.97l-1.144.97ZM4 15.593a.75.75 0 0 0 0-1.5v1.5ZM2 1v.75V1Zm5.857 0v.75V1Zm.763.353-.572.485.572-.485Zm-6.87 12.49V2H.25v11.843h1.5ZM2 1.75h5.857V.25H2v1.5Zm6.048.088 2.67 3.147 1.144-.97L9.192.868l-1.144.97ZM2 15.593h2v-1.5H2v1.5ZM1.75 2A.25.25 0 0 1 2 1.75V.25A1.75 1.75 0 0 0 .25 2h1.5ZM.25 13.843c0 .966.784 1.75 1.75 1.75v-1.5a.25.25 0 0 1-.25-.25H.25ZM7.857 1.75a.25.25 0 0 1 .19.088l1.144-.97A1.75 1.75 0 0 0 7.857.25v1.5ZM5.814 8H4.141v4.667h1v-1.8h.673c1.007 0 1.594-.527 1.594-1.434C7.408 8.527 6.82 8 5.814 8Zm-.16 2.067h-.513V8.8h.513c.507 0 .74.2.74.633 0 .434-.233.634-.74.634ZM9.505 8H8.272v4.667h1.233c1.313 0 2.1-.847 2.1-2.334 0-1.486-.787-2.333-2.1-2.333Zm-.093 3.867h-.14V8.8h.14c.766 0 1.173.5 1.173 1.533 0 1.034-.407 1.534-1.173 1.534ZM15.476 8.8V8h-2.94v4.667h1V10.74h1.673v-.8h-1.673V8.8h1.94Z" fill="#000"/></svg>
